open-wallet-images/icons/receive.svg

<svg xmlns="http://www.w3.org/2000/svg" width="18" height="18" viewBox="0 0 18 18">
  <path fill="#fff" d="M16,0 L1.99,0 C0.88,0 0.01,0.89 0.01,2 L0,16 C0,17.1 0.88,18 1.99,18 L16,18 C17.1,18 18,17.1 18,16 L18,2 C18,0.89 17.1,0 16,0 L16,0 Z M16,12 L12,12 C12,13.66 10.65,15 9,15 C7.35,15 6,13.66 6,12 L1.99,12 L1.99,2 L16,2 L16,12 L16,12 Z"/>
</svg>

<?xml version="1.0" encoding="utf-8"?>
<!-- Generator: Adobe Illustrator 22.1.0, SVG Export Plug-In . SVG Version: 6.00 Build 0)  -->
<svg version="1.1" id="Calque_1" xmlns="http://www.w3.org/2000/svg" xmlns:xlink="http://www.w3.org/1999/xlink" x="0px" y="0px"
	 viewBox="0 0 18 18" style="enable-background:new 0 0 18 18;" xml:space="preserve">
<style type="text/css">
	.st0{fill:#B5C0D7;}
</style>
<path class="st0" d="M16,0H2C0.9,0,0,0.9,0,2l0,14c0,1.1,0.9,2,2,2h14c1.1,0,2-0.9,2-2V2C18,0.9,17.1,0,16,0L16,0z M16,12h-4
	c0,1.7-1.4,3-3,3s-3-1.3-3-3H2V2h14V12L16,12z"/>
</svg>
